app/assets/images/payment_icons/esr_paymentslip_switzerland.svg

<svg xmlns="http://www.w3.org/2000/svg" xmlns:xlink="http://www.w3.org/1999/xlink" version="1.1" preserveAspectRatio="xMidYMid meet" width="38" height="24" role="img"><title>ESR Paymentslip</title><defs><path d="M0 0h38v24H0V0z" id="a"/><path d="M.69.61H37.5v23.06H.69V.61z" id="b"/><path d="M9.46 19.7H37.5v3.97H9.46V19.7z" id="c"/><path d="M37.53.46v23.17H.46V.46h37.07z" id="d"/><path d="M37.5 5.31H.69" id="e"/><path d="M23.57 19.7V5.31" id="f"/><path d="M37.5 13.43H23.57" id="g"/><path d="M2.66 11.66h8.41v2.21H2.66v-2.21z" id="h"/><path d="M13.06 11.66h8.42v2.21h-8.42v-2.21z" id="i"/></defs><use xlink:href="#a" opacity="1" fill="#fff" fill-opacity="1"/><use xlink:href="#b" opacity="1" fill="#ffca7e" fill-opacity="1"/><use xlink:href="#c" opacity="1" fill="#fff" fill-opacity="1"/><use xlink:href="#d" opacity="1" fill-opacity="0" stroke="#000" stroke-width="1" stroke-opacity="1"/><use xlink:href="#e" opacity="1" fill-opacity="0" stroke="#000" stroke-width="1" stroke-opacity="1"/><use xlink:href="#f" opacity="1" fill-opacity="0" stroke="#000" stroke-width="1" stroke-opacity="1"/><use xlink:href="#g" opacity="1" fill-opacity="0" stroke="#000" stroke-width="1" stroke-opacity="1"/><use xlink:href="#h" opacity="1" fill="#bd740b" fill-opacity="1"/><use xlink:href="#i" opacity="1" fill="#bd740b" fill-opacity="1"/></svg>

<?xml version="1.0" encoding="UTF-8" standalone="no"?>
<!DOCTYPE svg PUBLIC "-//W3C//DTD SVG 1.1//EN" "http://www.w3.org/Graphics/SVG/1.1/DTD/svg11.dtd">
<svg xmlns="http://www.w3.org/2000/svg" xmlns:xlink="http://www.w3.org/1999/xlink" version="1.1" preserveAspectRatio="xMidYMid meet" viewBox="0 0 38 24" width="38" height="24" role="img">
  <title>ESR Paymentslip</title><defs>
    <path d="M0 0L38 0L38 24L0 24L0 0Z" id="a17aXbfHma"/>
    <path d="M0.69 0.61L37.5 0.61L37.5 23.67L0.69 23.67L0.69 0.61Z" id="d3tFTLW1MO"/>
    <path d="M9.46 19.7L37.5 19.7L37.5 23.67L9.46 23.67L9.46 19.7Z" id="e4tnJqoLg"/>
    <path d="M37.53 0.46L37.53 23.63L22.1 23.63L0.46 23.63L0.46 0.46L37.53 0.46Z" id="euVlrPG5c"/>
    <path d="M37.5 5.31L0.69 5.31" id="a5024qKwD"/>
    <path d="M23.57 19.7L23.57 5.31" id="a4iME7zOsA"/>
    <path d="M37.5 13.43L23.57 13.43" id="a2ipZ2vzyn"/>
    <path d="M2.66 11.66L11.07 11.66L11.07 13.87L2.66 13.87L2.66 11.66Z" id="ddfH4NPPf"/>
    <path d="M13.06 11.66L21.48 11.66L21.48 13.87L13.06 13.87L13.06 11.66Z" id="c3VBoIAICG"/>
  </defs>
  <g>
    <g>
      <g>
        <use xlink:href="#a17aXbfHma" opacity="1" fill="#ffffff" fill-opacity="1"/>
      </g>
      <g>
        <use xlink:href="#d3tFTLW1MO" opacity="1" fill="#ffca7e" fill-opacity="1"/>
      </g>
      <g>
        <use xlink:href="#e4tnJqoLg" opacity="1" fill="#ffffff" fill-opacity="1"/>
      </g>
      <g>
        <g>
          <use xlink:href="#euVlrPG5c" opacity="1" fill-opacity="0" stroke="#000000" stroke-width="1" stroke-opacity="1"/>
        </g>
      </g>
      <g>
        <g>
          <use xlink:href="#a5024qKwD" opacity="1" fill-opacity="0" stroke="#000000" stroke-width="1" stroke-opacity="1"/>
        </g>
      </g>
      <g>
        <g>
          <use xlink:href="#a4iME7zOsA" opacity="1" fill-opacity="0" stroke="#000000" stroke-width="1" stroke-opacity="1"/>
        </g>
      </g>
      <g>
        <g>
          <use xlink:href="#a2ipZ2vzyn" opacity="1" fill-opacity="0" stroke="#000000" stroke-width="1" stroke-opacity="1"/>
        </g>
      </g>
      <g>
        <use xlink:href="#ddfH4NPPf" opacity="1" fill="#bd740b" fill-opacity="1"/>
      </g>
      <g>
        <use xlink:href="#c3VBoIAICG" opacity="1" fill="#bd740b" fill-opacity="1"/>
      </g>
    </g>
  </g>
</svg>
